web/assets/img/functions/920-closed.svg

<svg width="512" height="512" viewBox="0 0 512 512" fill="none" xmlns="http://www.w3.org/2000/svg">
    <path fill-rule="evenodd" clip-rule="evenodd"
          d="M1 16C1 10.4772 5.47715 6 11 6H501C506.523 6 511 10.4772 511 16V72C511 77.5228 506.523 82 501 82H11C5.47715 82 1 77.5228 1 72V16ZM21 26V62H491V26H21Z"
          fill="#282828"/>
    <path fill-rule="evenodd" clip-rule="evenodd"
          d="M255.979 422.5C261.225 422.5 265.479 426.753 265.479 432V464C265.479 469.247 261.225 473.5 255.979 473.5C250.732 473.5 246.479 469.247 246.479 464V432C246.479 426.753 250.732 422.5 255.979 422.5Z"
          fill="#00D151"/>
    <path fill-rule="evenodd" clip-rule="evenodd"
          d="M256 474C252.686 474 250 476.686 250 480C250 483.314 252.686 486 256 486C259.314 486 262 483.314 262 480C262 476.686 259.314 474 256 474ZM230 480C230 465.641 241.641 454 256 454C270.359 454 282 465.641 282 480C282 494.359 270.359 506 256 506C241.641 506 230 494.359 230 480Z"
          fill="#00D151"/>
    <path fill-rule="evenodd" clip-rule="evenodd"
          d="M14 432C14 426.477 18.4772 422 24 422H488C493.523 422 498 426.477 498 432C498 437.523 493.523 442 488 442H24C18.4772 442 14 437.523 14 432Z"
          fill="#282828"/>
    <path fill-rule="evenodd" clip-rule="evenodd"
          d="M34 72C34 66.4772 38.4772 62 44 62H468C473.523 62 478 66.4772 478 72V432C478 437.523 473.523 442 468 442H44C38.4772 442 34 437.523 34 432V72ZM54 82V422H458V82H54Z"
          fill="#282828"/>
    <g clip-path="url(#clip0_5030_777)">
        <path fill-rule="evenodd" clip-rule="evenodd"
              d="M211.992 152.011C229.788 152.667 243.312 160.33 251.548 176.422C254.486 182.31 255.874 188.849 255.58 195.422C255.482 199.145 254.844 202.835 253.685 206.375C253.611 206.515 253.566 206.668 253.554 206.826C253.542 206.983 253.563 207.142 253.615 207.291C253.667 207.44 253.75 207.577 253.858 207.692C253.965 207.808 254.095 207.9 254.24 207.963C266.815 215.918 279.38 223.889 291.938 231.877C294.791 233.684 297.662 235.456 300.476 237.335C300.643 237.493 300.84 237.616 301.056 237.697C301.272 237.778 301.501 237.815 301.731 237.805C301.961 237.795 302.187 237.739 302.395 237.641C302.603 237.542 302.789 237.402 302.942 237.23C307.27 233.614 312.731 231.63 318.373 231.626C324.165 231.465 329.829 233.351 334.368 236.952C338.906 240.553 342.029 245.637 343.187 251.312C344.058 256.144 343.405 261.126 341.317 265.57C339.229 270.014 335.811 273.699 331.535 276.116C327.751 278.369 323.435 279.578 319.03 279.618C314.625 279.658 310.288 278.528 306.463 276.344C306.351 276.259 306.222 276.198 306.085 276.165C305.947 276.132 305.805 276.129 305.666 276.154C305.527 276.179 305.395 276.233 305.278 276.312C305.161 276.391 305.062 276.493 304.986 276.612C300.229 281.689 295.457 286.755 290.671 291.81C285.453 297.35 280.237 302.893 275.024 308.439C273.252 310.326 271.518 312.237 269.705 314.079C269.061 314.735 269.113 315.112 269.742 315.741C273.242 319.09 275.409 323.593 275.844 328.416C276.287 332.105 275.716 335.846 274.19 339.234C272.665 342.623 270.244 345.532 267.187 347.648C255.065 356.573 237.33 351.268 232.69 336.804C231.344 332.476 231.441 327.828 232.966 323.56C234.491 319.292 237.361 315.634 241.146 313.137C241.333 313.051 241.502 312.929 241.641 312.777C241.781 312.626 241.889 312.448 241.959 312.254C242.029 312.061 242.059 311.855 242.048 311.649C242.037 311.443 241.985 311.242 241.895 311.057C239.922 304.561 237.584 298.204 235.396 291.781C229.164 273.527 222.918 255.283 216.659 237.049C216.417 236.337 216.163 236.061 215.294 236.113C209.418 236.59 203.507 235.876 197.913 234.016C192.32 232.156 187.159 229.187 182.741 225.287C174.96 218.715 169.965 209.437 168.764 199.327C167.964 193.639 168.397 187.846 170.035 182.341C171.673 176.836 174.477 171.747 178.257 167.421C185.382 158.92 195.501 153.48 206.525 152.222C207.241 152.115 207.962 152.045 208.685 152.013C209.789 151.985 210.892 152.011 211.992 152.011ZM228.933 233.535C228.962 233.663 229.011 233.893 229.067 234.127C230.623 240.651 232.179 247.177 233.736 253.705C238.126 272.113 242.506 290.524 246.874 308.936C247.105 309.921 247.449 310.106 248.427 309.872C253.616 308.536 259.115 309.132 263.898 311.548C264.032 311.648 264.186 311.718 264.349 311.752C264.513 311.787 264.682 311.787 264.845 311.75C265.008 311.714 265.162 311.643 265.295 311.542C265.428 311.442 265.538 311.313 265.617 311.166C276.642 297.804 287.772 284.53 298.533 270.953C299.055 270.298 298.935 269.899 298.51 269.268C292.944 261.063 292.482 252.572 297.223 243.861C297.693 242.992 297.554 242.679 296.738 242.24C287.798 237.409 278.868 232.557 269.95 227.683C263.296 224.058 256.634 220.458 249.985 216.817C249.25 216.414 248.866 216.507 248.411 217.199C247.158 219.096 245.733 220.875 244.156 222.514C240.067 226.829 235.14 230.264 229.677 232.612C229.326 232.775 228.826 232.827 228.933 233.535ZM241.305 193.617C241.361 190.741 240.869 187.881 239.855 185.189C235.402 173.471 226.741 166.99 214.414 165.849C209.758 165.337 205.048 165.984 200.703 167.732C196.359 169.48 192.514 172.276 189.513 175.869C185.489 180.446 183.094 186.225 182.7 192.305C182.306 198.385 183.936 204.424 187.335 209.482C190.678 214.377 195.405 218.165 200.912 220.363C206.42 222.56 212.458 223.066 218.255 221.816C224.773 220.517 230.637 216.993 234.842 211.849C239.047 206.705 241.331 200.259 241.305 193.617ZM254.136 345.185C254.916 345.207 255.696 345.135 256.459 344.972C258.646 344.65 260.731 343.835 262.557 342.589C264.383 341.343 265.902 339.699 266.999 337.78C268.095 335.862 268.742 333.72 268.889 331.515C269.036 329.311 268.681 327.101 267.849 325.054C266.464 321.952 264.088 319.395 261.094 317.786C258.1 316.177 254.657 315.605 251.303 316.16C249.352 316.461 247.481 317.15 245.801 318.186C244.122 319.222 242.667 320.585 241.524 322.194C240.38 323.802 239.572 325.623 239.146 327.55C238.72 329.476 238.685 331.468 239.043 333.408C239.792 336.821 241.71 339.865 244.466 342.015C247.221 344.165 250.642 345.286 254.136 345.185ZM318.792 241.308C317.759 241.307 316.729 241.397 315.712 241.577C313.638 241.963 311.675 242.803 309.965 244.037C308.254 245.271 306.839 246.869 305.82 248.715C304.802 250.562 304.206 252.611 304.074 254.715C303.943 256.819 304.28 258.927 305.062 260.885C306.578 264.359 309.356 267.13 312.836 268.638C316.315 270.146 320.238 270.279 323.812 269.011C327.15 267.904 329.959 265.6 331.699 262.546C333.439 259.491 333.985 255.901 333.234 252.467C332.45 249.247 330.593 246.389 327.969 244.362C325.345 242.335 322.109 241.261 318.793 241.315L318.792 241.308Z"
              fill="#00D151"/>
    </g>
    <defs>
        <clipPath id="clip0_5030_777">
            <rect width="175.182" height="200" fill="white" transform="translate(168.409 152)"/>
        </clipPath>
    </defs>
</svg>

<?xml version="1.0" encoding="utf-8"?>
<!-- Generator: Adobe Illustrator 28.2.0, SVG Export Plug-In . SVG Version: 6.00 Build 0)  -->
<svg version="1.1" id="Calque_1" xmlns="http://www.w3.org/2000/svg" xmlns:xlink="http://www.w3.org/1999/xlink" x="0px" y="0px"
	 viewBox="0 0 512 512" style="enable-background:new 0 0 512 512;" xml:space="preserve">
<style type="text/css">
	.st0{fill-rule:evenodd;clip-rule:evenodd;fill:#282828;}
	.st1{fill-rule:evenodd;clip-rule:evenodd;fill:#33B0DF;}
</style>
<path class="st0" d="M1,16C1,10.5,5.5,6,11,6h490c5.5,0,10,4.5,10,10v56c0,5.5-4.5,10-10,10H11C5.5,82,1,77.5,1,72V16z M21,26v36
	h470V26H21z"/>
<path class="st1" d="M256,422.5c5.2,0,9.5,4.3,9.5,9.5v32c0,5.2-4.3,9.5-9.5,9.5c-5.2,0-9.5-4.3-9.5-9.5v-32
	C246.5,426.8,250.7,422.5,256,422.5z"/>
<path class="st1" d="M256,474c-3.3,0-6,2.7-6,6s2.7,6,6,6s6-2.7,6-6S259.3,474,256,474z M230,480c0-14.4,11.6-26,26-26
	c14.4,0,26,11.6,26,26s-11.6,26-26,26C241.6,506,230,494.4,230,480z"/>
<path class="st0" d="M14,432c0-5.5,4.5-10,10-10h464c5.5,0,10,4.5,10,10s-4.5,10-10,10H24C18.5,442,14,437.5,14,432z"/>
<path class="st0" d="M34,72c0-5.5,4.5-10,10-10h424c5.5,0,10,4.5,10,10v360c0,5.5-4.5,10-10,10H44c-5.5,0-10-4.5-10-10V72z M54,82
	v340h404V82H54z"/>
<image style="overflow:visible;" width="16200" height="16200" xlink:href="../../../Downloads/logospiderhome.png"  transform="matrix(1.462963e-02 0 0 1.462963e-02 146.979 122)">
</image>
</svg>
